svg/300/rounded/cancel_presentation-fill.svg

<svg xmlns="http://www.w3.org/2000/svg" width="48" height="48" viewBox="0 -960 960 960"><path d="m448.001-480-101 101q-6.692 7.077-6.885 16-.192 8.922 6.885 15.999T363-339.924q8.923 0 16-7.077l101-101 101.385 101q6.692 6.692 15.615 6.885 8.922.192 15.999-6.885T620.076-363q0-8.923-7.077-16l-101-101 101-101.385q6.692-6.692 6.885-15.615.192-8.922-6.885-15.999T597-620.076q-8.923 0-15.615 7.077L480-511.999l-101-101q-7.077-6.692-16-6.885-8.922-.192-15.999 6.885T339.924-597q0 8.923 7.077 15.615l101 101.385ZM157.694-180.001q-23.616 0-40.654-17.039-17.039-17.038-17.039-40.654v-484.612q0-23.616 17.039-40.654 17.038-17.039 40.654-17.039h644.612q23.616 0 40.654 17.039 17.039 17.038 17.039 40.654v484.612q0 23.616-17.039 40.654-17.038 17.039-40.654 17.039H157.694Z"/></svg>

<svg xmlns="http://www.w3.org/2000/svg" width="48" height="48" viewBox="0 -960 960 960"><path d="M448-480 347-379q-6.69 7.08-6.88 16-.2 8.92 6.88 16t16 7.08q8.92 0 16-7.08l101-101 101.38 101q6.7 6.69 15.62 6.88 8.92.2 16-6.88t7.08-16q0-8.92-7.08-16L512-480l101-101.38q6.69-6.7 6.88-15.62.2-8.92-6.88-16t-16-7.08q-8.92 0-15.62 7.08L480-512 379-613q-7.08-6.69-16-6.88-8.92-.2-16 6.88t-7.08 16q0 8.92 7.08 15.62L448-480ZM157.69-180q-23.61 0-40.65-17.04T100-237.69v-484.62q0-23.61 17.04-40.65T157.69-780h644.62q23.61 0 40.65 17.04T860-722.31v484.62q0 23.61-17.04 40.65T802.31-180H157.69Z"/></svg>
